src/pos-icons/calendar-plus.svg

<svg height="24" viewBox="0 0 24 24" width="24" xmlns="http://www.w3.org/2000/svg"><path d="m19 19v-11h-14v11zm-3-18h2v2h1c1.11 0 2 .9 2 2v14c0 1.11-.89 2-2 2h-14c-1.11 0-2-.9-2-2v-14c0-1.11.89-2 2-2h1v-2h2v2h8zm-5 8.5h2v3h3v2h-3v3h-2v-3h-3v-2h3z"/></svg>

<?xml version="1.0" encoding="UTF-8"?><!DOCTYPE svg PUBLIC "-//W3C//DTD SVG 1.1//EN" "http://www.w3.org/Graphics/SVG/1.1/DTD/svg11.dtd"><svg xmlns="http://www.w3.org/2000/svg" xmlns:xlink="http://www.w3.org/1999/xlink" version="1.1" id="mdi-calendar-plus" width="24" height="24" viewBox="0 0 24 24"><path d="M19 19V8H5V19H19M16 1H18V3H19C20.11 3 21 3.9 21 5V19C21 20.11 20.11 21 19 21H5C3.89 21 3 20.1 3 19V5C3 3.89 3.89 3 5 3H6V1H8V3H16V1M11 9.5H13V12.5H16V14.5H13V17.5H11V14.5H8V12.5H11V9.5Z" /></svg>
